src/shared/_assets/icons/square-play.svg

<svg width="15" height="15" viewBox="0 0 15 15" fill="none" xmlns="http://www.w3.org/2000/svg">
<path d="M5.41667 11.25L11.25 7.5L5.41667 3.75V11.25ZM1.66667 15C1.20833 15 0.815972 14.8368 0.489583 14.5104C0.163194 14.184 0 13.7917 0 13.3333V1.66667C0 1.20833 0.163194 0.815972 0.489583 0.489583C0.815972 0.163194 1.20833 0 1.66667 0H13.3333C13.7917 0 14.184 0.163194 14.5104 0.489583C14.8368 0.815972 15 1.20833 15 1.66667V13.3333C15 13.7917 14.8368 14.184 14.5104 14.5104C14.184 14.8368 13.7917 15 13.3333 15H1.66667ZM1.66667 13.3333H13.3333V1.66667H1.66667V13.3333ZM1.66667 1.66667V13.3333V1.66667Z" fill="#A1A1A1"/>
</svg>

<svg xmlns="http://www.w3.org/2000/svg" fill="none" viewBox="0 0 15 15"><path fill="currentColor" d="M5.417 11.25 11.25 7.5 5.417 3.75zM1.667 15q-.688 0-1.177-.49A1.6 1.6 0 0 1 0 13.333V1.667Q0 .979.49.49.979 0 1.667 0h11.666q.688 0 1.177.49.49.489.49 1.177v11.666q0 .688-.49 1.177-.489.49-1.177.49zm0-1.667h11.666V1.667H1.667zm0-11.666v11.666z"/></svg>
